img/svg/phone.svg

<svg width="20" height="21" viewBox="0 0 20 21" fill="none" xmlns="http://www.w3.org/2000/svg">
<g clip-path="url(#clip0_2008_1894)">
<path d="M15.1876 20.4219C14.3438 20.4219 13.3751 20.2031 12.3126 19.7969C10.1876 18.9531 7.84383 17.3282 5.75008 15.2344C3.65633 13.1407 2.03133 10.7969 1.18758 8.64065C0.25008 6.32815 0.34383 4.4219 1.43758 3.3594C1.46883 3.32815 1.53133 3.2969 1.56258 3.26565L4.18758 1.70315C4.84383 1.32815 5.68758 1.51565 6.12508 2.14065L7.96883 4.89065C8.40633 5.5469 8.21883 6.4219 7.59383 6.8594L6.46883 7.64065C7.28133 8.95315 9.59383 12.1719 13.2813 14.4844L13.9688 13.4844C14.5001 12.7344 15.3438 12.5156 16.0313 12.9844L18.7813 14.8282C19.4063 15.2657 19.5938 16.1094 19.2188 16.7656L17.6563 19.3906C17.6251 19.4531 17.5938 19.4844 17.5626 19.5157C17.0001 20.1094 16.1876 20.4219 15.1876 20.4219ZM2.37508 4.4219C1.78133 5.07815 1.81258 6.4219 2.50008 8.14065C3.28133 10.1094 4.78133 12.2656 6.75008 14.2344C8.68758 16.1719 10.8751 17.6719 12.8126 18.4531C14.5001 19.1406 15.8438 19.1719 16.5313 18.5782L18.0313 16.0157C18.0313 15.9844 18.0313 15.9844 18.0313 15.9531L15.2813 14.1094C15.2813 14.1094 15.2188 14.1406 15.1563 14.2344L14.4688 15.2344C14.0313 15.8594 13.1876 16.0469 12.5626 15.6406C8.62508 13.2031 6.18758 9.7969 5.31258 8.4219C4.90633 7.76565 5.06258 6.9219 5.68758 6.4844L6.81258 5.70315V5.6719L4.96883 2.9219C4.96883 2.89065 4.93758 2.89065 4.90633 2.9219L2.37508 4.4219Z" fill="#13C296"/>
<path d="M18.3127 9.85958C17.9377 9.85958 17.6565 9.57833 17.6252 9.20333C17.3752 6.04708 14.7815 3.51583 11.594 3.29708C11.219 3.26583 10.9065 2.95333 10.9377 2.54708C10.969 2.17208 11.2815 1.85958 11.6877 1.89083C15.5627 2.14083 18.719 5.20333 19.0315 9.07833C19.0627 9.45333 18.7815 9.79708 18.3752 9.82833C18.3752 9.85958 18.344 9.85958 18.3127 9.85958Z" fill="#13C296"/>
<path d="M15.2189 10.141C14.8752 10.141 14.5627 9.89104 14.5314 9.51604C14.3439 7.82854 13.0314 6.51604 11.3439 6.29729C10.9689 6.26604 10.6877 5.89104 10.7189 5.51604C10.7502 5.14104 11.1252 4.85979 11.5002 4.89104C13.8439 5.17229 15.6564 6.98479 15.9377 9.32854C15.9689 9.70354 15.7189 10.0473 15.3127 10.1098C15.2502 10.141 15.2189 10.141 15.2189 10.141Z" fill="#13C296"/>
</g>
<defs>
<clipPath id="clip0_2008_1894">
<rect width="20" height="20" fill="white" transform="translate(0 0.953125)"/>
</clipPath>
</defs>
</svg>

<?xml version="1.0" encoding="utf-8"?><svg width="20" height="21" fill="none" xmlns="http://www.w3.org/2000/svg" viewBox="0 0 20 21"><g clip-path="url(#aza)" fill="#13C296"><path d="M15.188 20.422c-.844 0-1.813-.219-2.875-.625-2.125-.844-4.47-2.469-6.563-4.563-2.094-2.093-3.719-4.437-4.562-6.593-.938-2.313-.844-4.22.25-5.282.03-.03.093-.062.125-.093l2.625-1.563a1.477 1.477 0 0 1 1.937.438L7.97 4.89c.437.656.25 1.53-.375 1.968l-1.125.782c.812 1.312 3.125 4.53 6.812 6.843l.688-1c.531-.75 1.375-.968 2.062-.5l2.75 1.844c.625.438.813 1.281.438 1.938l-1.563 2.625c-.03.062-.062.093-.093.125-.563.593-1.375.906-2.375.906Zm-12.813-16c-.594.656-.562 2 .125 3.719.781 1.968 2.281 4.125 4.25 6.093 1.938 1.938 4.125 3.438 6.063 4.22 1.687.687 3.03.718 3.718.124l1.5-2.562v-.063l-2.75-1.844s-.062.032-.125.125l-.687 1c-.438.625-1.281.813-1.906.407-3.938-2.438-6.375-5.844-7.25-7.22-.407-.655-.25-1.5.375-1.937l1.125-.78v-.032l-1.844-2.75c0-.031-.031-.031-.063 0l-2.53 1.5ZM18.313 9.86c-.375 0-.656-.282-.688-.657-.25-3.156-2.844-5.687-6.031-5.906a.703.703 0 0 1-.656-.75.703.703 0 0 1 .75-.656c3.875.25 7.031 3.312 7.344 7.187a.7.7 0 0 1-.657.75c0 .032-.031.032-.062.032Z"/><path d="M15.219 10.141a.681.681 0 0 1-.688-.625c-.187-1.687-1.5-3-3.187-3.219-.375-.031-.656-.406-.625-.781.031-.375.406-.656.781-.625a5.048 5.048 0 0 1 4.438 4.438.722.722 0 0 1-.625.78c-.063.032-.094.032-.094.032Z"/></g><defs><clipPath id="aza"><path fill="#fff" transform="translate(0 .953)" d="M0 0h20v20H0z"/></clipPath></defs></svg>
